X: 20191
T: EAST NEUK OF FIFE
Q: "Lively"
%R: reel, march
B: "Edinburgh Repository of Music" v.2 p.19 #1
F: http://digital.nls.uk/special-collections-of-printed-music/pageturner.cfm?id=87776133
Z: 2015 John Chambers <jc:trillian.mit.edu>
M: C
L: 1/8
K: G
D2 |\
G2G2 G2Bc | (dB).G.B (dB).G.B | A2A2 A2gf | e3f efg2 |\
(dc).B.A (GA).B.c | dBGB d3B | (AB).c.d (Bc).A.B | G2E2 E2 :|
|: (dc) |\
B2G2 G2dc | B2G2 G2(ed) | ^c2A2 A2fg | a2A2 A2Bc |\
d2G2 B2G2 | g2G2 d2(cB) | (AB).c.d (Bc).A.B | G2E2 E2 :|

%%sep 2 1 500
%%sep 1 1 500

